X:1
T:Stonefield, LM
T:Stonefield, LM
T:Samuel Stanley, 1810
T:Public Domain Courtesy of the Cyber Hymnal™
C:Samuel Stanley, 1810
Z:Public Domain
Z:Courtesy of the Cyber Hymnal™
%%score ( 1 2 ) ( 3 4 )
L:1/8
Q:1/4=115
M:3/4
K:Eb
V:1 treble 
V:2 treble 
V:3 bass 
V:4 bass 
V:1
 E2 | (G>A) G2 [DF]2 | E4 [EB]2 | (B2 c2) [Ad]2 | [Ge]4 [Ge]2 | [Ee]4 [Ge]2 | [Fd]4 [FB]2 | %7
 ([Gc]2 [FB]2) [F=A]2 | [FB]4 [GB]2 | ([GB]2 [Ac][GB]) ([FA][=EG]) | [FA]4 [FA]2 | %11
 ([FA]2 [GB][FA]) ([EG][DF]) | [EG]4 [GB]2 | (B2 c2) [Ad]2 x2 | [Ge]4 B2 | ([GB][FA] [EG]2) [DF]2 | %16
 E4 |] %17
V:2
 E2 | E4 x2 | E4 x2 | E4 x2 | x6 | x6 | x6 | x6 | x6 | x6 | x6 | x6 | x6 | E4 x4 | x4 (EG) | x6 | %16
 E4 |] %17
V:3
 [E,G,]2 | (B,>C) B,2 [B,,A,]2 | [C,G,]4 [G,E]2 | E4 [F,B,]2 | [E,B,]4 [E,B,]2 | [G,B,]4 [E,B,]2 | %6
 (B,2 F2) [D,F]2 | ([E,E]2 [F,D]2) [F,C]2 | [B,,D]4 E,2 | C,4 C,2 | F,4 F,2 | B,,4 B,,2 | %12
 E,4 [E,C]2 | C4 A,2 [F,B,]2 | [E,B,]4 [G,B,]2 | ([G,B,][A,C] B,2) [B,,A,]2 | [E,G,]4 |] %17
V:4
 x2 | E,4 x2 | x6 | (G,2 A,2) x2 | x6 | x6 | B,4 x2 | x6 | x6 | x6 | x6 | x6 | x6 | G,2 x6 | x6 | %15
 x2 B,2 x2 | x4 |] %17

